X:89
T:BLKBRD2- The Blackbird
S:from Cooke's Selection', c 1795 & Hime's, c 1805
Q:1/4=120
L:1/4
M:C
K:Dm
(G/A/)|BB/B/ A/G/A/^c/|d/^c/d/A/ {G/}FD|Ff/d/ c/A/G/A/|\
FDD::A|d/e/f/g/ ag/f/|g/f/ g/a/ {g/}fd|d/e/f/g/ag/a/|\
eddf/g/|a/g/f/a/ g/f/g/d/|c/B/c/A/ f {f/g/}a|\
AG/F/ G/B/A/G/|BFB,:|]

